X:6
T:Apples in Winter
R:Jig
N:American Variant of Kennedy's Jig
M:6/8
K:Em
|:BEE dEE|BAG FGE|DED FDF|ABc d2c|
|BEE BAB|def g2e|fdB AGF|1 GEE E2A:|2 GEE E2B|
|:efe edB|gfe fdB|ded dAF|DFA def|
|1 efe edB|def g2a|bag agf|ged e2d|
:|2 edB def|gba gfe|fdB AGF|GEE E2A|
